X: 1
T: Dwa serduszka
N: Transposed to F
M: 3/4
Q: 1/4=88
L: 1/8
K:F
D3E DE|GF E2 Dz|EF G4-|G4- Gz|
E3F EF|GB AG FE/2z/2|FG A4-|A4- Az|
D2 d2 AB|dc B2 Az|G2 d2 GA|BB A2 Gz|
AA G2 F2|GG A2 E2|Dz F2 G2|GD4-D|

